X:227
T:Or est Baiars 
C:Adam de la Halle
R:Rondeau
O:XIIIe
M:6/8
L:1/8
Q:1/4=162
K:G 
%%continueall 1
%%maxshrink 1
V:1
%%MIDI program 65
e3 d3 | d2e2<d2 | dcB2<A2 | B2c B2G | 
B2G2<A2 | A2B2<A2 | c3 B3 | cBA B2-B/2z/2 | 
z3 A3 | A2B2<A2 | c3 B3 | AGA2<B2 | 
e3 d3 | d2e2<d2 | dcB2<A2 | B2c B2G | 
e3 d3 | d2e2<d2 | dcB2<A2 | B2c B2G | 
e3 d3 | d2e2<d2 | dcB2<A2 | B2c B2G | 
B2G2<A2 | A2B2<A2 | c3 B3 | cBA B2-B/2z/2 | 
z3 A3 | A2B2<A2 | c3 B3 | AGA2<B2 | 
e3 d3 | d2e2<d2 | dcB2<A2 | B2c B2G | 
B2G2<A2 | A2B2<A2 | c3 B3 | cBA B2-B/2z/2 | 
z3 A3 | A2B2<A2 | c3 B3 | AGA B3 |]
V:2
%%MIDI program 70
B3 G3 | GAB2<G2 | G=FE2<D2 | E2=F E2B | 
G2E2<E2 | E2^F2<F2 | G2F2<E2 | EDE F2-F/2z/2 | 
z3 E3 | E2F2<F2 | G2F2<E2 | D2E2<F2 | 
B3 G3 | GAB2<G2 | G=FE2<D2 | E2=F E2B | 
B3 G3 | GAB2<G2 | G=FE2<D2 | E2=F E2B | 
B3 G3 | GAB2<G2 | G=FE2<D2 | E2=F E2B | 
G2E2<E2 | E2=F2<=F2 | G2=F2<E2 | EDE =F2-=F/2z/2 | 
z3 E3 | E2=F2<=F2 | G2=F2<E2 | D2E2<=F2 | 
B3 G3 | GAB2<G2 | G=FE2<D2 | E2=F E2B | 
G2E2<E2 | E2^F2<F2 | G2F2<E2 | EDE F2-F/2z/2 | 
z3 E3 | E2F2<F2 | G2F2<E2 | D2E F3 |]
V:3
%%MIDI program 57
E3 G3 | GFE2<G2 | G3 F3 | E2D E2E | 
E2E2<A,2 | A,2B,2<D2 | C3 E3 | EDC B,2-B,/2z/2 | 
z3 A,3 | A,2B,2<D2 | C3 E3 | EDC2<B,2 | 
E3 G3 | GFE2<G2 | G3 F3 | E2D E2E | 
E3 G3 | GFE2<G2 | G3 F3 | E2D E2E | 
E3 G3 | GFE2<G2 | G3 F3 | E2D E2E | 
E2E2<A,2 | A,2B,2<D2 | C3 E3 | EDC B,2-B,/2z/2 | 
z3 A,3 | A,2B,2<D2 | C3 E3 | EDC2<B,2 | 
E3 G3 | GFE2<G2 | G3 F3 | E2D E2E | 
E2E2<A,2 | A,2B,2<D2 | C3 E3 | EDC B,2-B,/2z/2 | 
z3 A,3 | A,2B,2<D2 | C3 E3 | EDC B,3 |]




%%header "$P0	 $IR 	$P1"
%%footer $D - Éditions Galouvielle - 2009 - À usage librement privé dans le cadre familial

